public/avatar/shoe/113.svg

<svg xmlns:xlink="http://www.w3.org/1999/xlink" height="38.3" width="36.05" xmlns="http://www.w3.org/2000/svg"><use height="20.4" transform="translate(9.95 8.7)" width="24.35" xlink:href="#a"/><defs><g id="a"><path d="M9.95-.85Q9.1-3.9 1.6-5.2-8-6.65-8.9-3.65l-.05.1-1.15 6.6.05.25.15.25.75.6-3.3 1.75-.25.15q-1.55 2.1.5 6.5l.2.2.2.1q10.2 2.8 21.3-3.2.25-3.6-.3-4.3.8-.05.75-.6L10-.6l-.05-.25Z" fill="none" stroke="#000" stroke-linecap="round" stroke-linejoin="round" transform="translate(13.85 6.15)"/><path d="M.8-.45H-.45q-.55 4-3.05 6.1l-.5.2-4.9-1.6q1 1.6 3.2 2.3-3.6 1.9-2.3 6.4l-3.65-.7q-1.85-3.95-.55-5.8 1.6-.8 3.3-2.25l.3-.3-.9-.75 1.15-6.6 1.35.7q3 1.5 6.6 2.1l1.2.2m-9.45 3.6v-.1h.05q1.45-2 .95-4.8l-1 4.9M-10 6.9l-.05-.15-.15.05-.2-.05q-1.6.4-1.2 2l.25.1.7-.45.15-.1q.6-.6.5-1.4" fill="#6a3500" fill-rule="evenodd" transform="translate(13.85 6.15)"/><path d="M.8-.45q3.3.35 7.15.05Q1.4-5.2-7-2.75l-1.35-.7q.9-2.5 9.85-1.15Q8.45-3.4 9.35-.7l.05.1v5.7l-.5.2q.7 1.6.5 3.7Q.45 14-8 12.95q-1.3-4.5 2.3-6.4-2.2-.7-3.2-2.3l4.9 1.6.5-.2Q-1 3.55-.45-.45H.8" fill="#482400" fill-rule="evenodd" transform="translate(13.85 6.15)"/><path d="M-7-2.75Q1.4-5.2 7.95-.4 4.1-.1.8-.45l-1.2-.2Q-4-1.25-7-2.75" fill="#3c1e00" fill-rule="evenodd" transform="translate(13.85 6.15)"/><path d="M-10 6.9q.1.8-.5 1.4l-.15.1-.7.45-.25-.1q-.4-1.6 1.2-2l.2.05.15-.05.05.15m1.35-3.75 1-4.9q.5 2.8-.95 4.8h-.05v.1" fill="#d56a00" fill-rule="evenodd" transform="translate(13.85 6.15)"/><path d="m8.45 4.8.25-.05.5-.1-.1-4.9Q-1 1.1-7.9-2.85l-1.25 6.1 1.8 1.25.95.35Q.8 7.1 8.45 4.8m.4 3.85L8.7 5.4Q-.85 8-8.55 4.7l-3.25 2.2q-.9 1.65.55 4.85 9.65 2.55 20.1-3.1M1.6-5.2Q9.1-3.9 9.95-.85L10-.6l-.05 5.35q.05.55-.75.6.55.7.3 4.3-11.1 6-21.3 3.2l-.2-.1-.2-.2q-2.05-4.4-.5-6.5l.25-.15 3.3-1.75-.75-.6-.15-.25-.05-.25 1.15-6.6.05-.1q.9-3 10.5-1.55M9-.7Q7.4-3.35 1-4.5q-6.5-1.15-8.8.8Q-1.15.55 9-.7M-7.7 3.9l-.25-.25L-8 3.6l.05.05.25.25" fill="#2b1500" fill-rule="evenodd" transform="translate(13.85 6.15)"/></g></defs></svg>

<?xml version="1.0" encoding="UTF-8" standalone="no"?>
<svg xmlns:xlink="http://www.w3.org/1999/xlink" height="38.3px" width="36.05px" xmlns="http://www.w3.org/2000/svg">
  <g transform="matrix(1.0, 0.0, 0.0, 1.0, 23.8, 14.85)">
    <use height="20.4" transform="matrix(1.0, 0.0, 0.0, 1.0, -13.85, -6.15)" width="24.35" xlink:href="#shape0"/>
  </g>
  <defs>
    <g id="shape0" transform="matrix(1.0, 0.0, 0.0, 1.0, 13.85, 6.15)">
      <path d="M9.95 -0.85 Q9.1 -3.9 1.6 -5.2 -8.0 -6.65 -8.9 -3.65 L-8.95 -3.55 -10.1 3.05 -10.05 3.3 -9.9 3.55 -9.15 4.15 -12.45 5.9 -12.7 6.05 Q-14.25 8.15 -12.2 12.55 L-12.0 12.75 -11.8 12.85 Q-1.6 15.65 9.5 9.65 9.75 6.05 9.2 5.35 10.0 5.3 9.95 4.75 L10.0 -0.6 9.95 -0.85 Z" fill="none" stroke="#000000" stroke-linecap="round" stroke-linejoin="round" stroke-width="1.0"/>
      <path d="M0.8 -0.45 L-0.45 -0.45 Q-1.0 3.55 -3.5 5.65 L-4.0 5.85 -8.9 4.25 Q-7.9 5.85 -5.7 6.55 -9.3 8.45 -8.0 12.95 L-11.65 12.25 Q-13.5 8.3 -12.2 6.45 -10.6 5.65 -8.9 4.2 L-8.6 3.9 -9.5 3.15 -8.35 -3.45 -7.0 -2.75 Q-4.0 -1.25 -0.4 -0.65 L0.8 -0.45 M-8.65 3.15 L-8.65 3.05 -8.6 3.05 Q-7.15 1.05 -7.65 -1.75 L-8.65 3.15 M-10.0 6.9 L-10.05 6.75 -10.2 6.8 -10.4 6.75 Q-12.0 7.15 -11.6 8.75 L-11.35 8.85 -10.65 8.4 -10.5 8.3 Q-9.9 7.7 -10.0 6.9" fill="#6a3500" fill-rule="evenodd" stroke="none"/>
      <path d="M0.8 -0.45 Q4.1 -0.1 7.95 -0.4 1.4 -5.2 -7.0 -2.75 L-8.35 -3.45 Q-7.45 -5.95 1.5 -4.6 8.45 -3.4 9.35 -0.7 L9.4 -0.6 9.4 5.1 8.9 5.3 Q9.6 6.9 9.4 9.0 0.45 14.0 -8.0 12.95 -9.3 8.45 -5.7 6.55 -7.9 5.85 -8.9 4.25 L-4.0 5.85 -3.5 5.65 Q-1.0 3.55 -0.45 -0.45 L0.8 -0.45" fill="#482400" fill-rule="evenodd" stroke="none"/>
      <path d="M-7.0 -2.75 Q1.4 -5.2 7.95 -0.4 4.1 -0.1 0.8 -0.45 L-0.4 -0.65 Q-4.0 -1.25 -7.0 -2.75" fill="#3c1e00" fill-rule="evenodd" stroke="none"/>
      <path d="M-10.0 6.9 Q-9.9 7.7 -10.5 8.3 L-10.65 8.4 -11.35 8.85 -11.6 8.75 Q-12.0 7.15 -10.4 6.75 L-10.2 6.8 -10.05 6.75 -10.0 6.9 M-8.65 3.15 L-7.65 -1.75 Q-7.15 1.05 -8.6 3.05 L-8.65 3.05 -8.65 3.15" fill="#d56a00" fill-rule="evenodd" stroke="none"/>
      <path d="M8.45 4.8 L8.7 4.75 9.2 4.65 9.1 -0.25 Q-1.0 1.1 -7.9 -2.85 L-9.15 3.25 -7.35 4.5 -6.4 4.85 Q0.8 7.1 8.45 4.8 M8.85 8.65 L8.7 5.4 Q-0.85 8.0 -8.55 4.7 L-11.8 6.9 Q-12.7 8.55 -11.25 11.75 -1.6 14.3 8.85 8.65 M1.6 -5.2 Q9.1 -3.9 9.95 -0.85 L10.0 -0.6 9.95 4.75 Q10.0 5.3 9.2 5.35 9.75 6.05 9.5 9.65 -1.6 15.65 -11.8 12.85 L-12.0 12.75 -12.2 12.55 Q-14.25 8.15 -12.7 6.05 L-12.45 5.9 -9.15 4.15 -9.9 3.55 -10.05 3.3 -10.1 3.05 -8.95 -3.55 -8.9 -3.65 Q-8.0 -6.65 1.6 -5.2 M9.0 -0.7 Q7.4 -3.35 1.0 -4.5 -5.5 -5.65 -7.8 -3.7 -1.15 0.55 9.0 -0.7 M-7.7 3.9 L-7.95 3.65 -8.0 3.6 -7.95 3.65 -7.7 3.9" fill="#2b1500" fill-rule="evenodd" stroke="none"/>
    </g>
  </defs>
</svg>
